common/media/svg/icons/cd.svg

<?xml version="1.0" encoding="UTF-8" standalone="no"?>
<svg
   xmlns:dc="http://purl.org/dc/elements/1.1/"
   xmlns:cc="http://creativecommons.org/ns#"
   xmlns:rdf="http://www.w3.org/1999/02/22-rdf-syntax-ns#"
   xmlns:svg="http://www.w3.org/2000/svg"
   xmlns="http://www.w3.org/2000/svg"
   xmlns:sodipodi="http://sodipodi.sourceforge.net/DTD/sodipodi-0.dtd"
   xmlns:inkscape="http://www.inkscape.org/namespaces/inkscape"
   version="1.1"
   x="0px"
   y="0px"
   width="32px"
   height="32px"
   viewBox="0 0 32 32"
   enable-background="new 0 0 32 32"
   xml:space="preserve"
   id="svg2"
   inkscape:version="0.48.4 r9939"
   sodipodi:docname="cd.svg"><defs
     id="defs13" /><sodipodi:namedview
     pagecolor="#ffffff"
     bordercolor="#666666"
     borderopacity="1"
     objecttolerance="10"
     gridtolerance="10"
     guidetolerance="10"
     inkscape:pageopacity="0"
     inkscape:pageshadow="2"
     inkscape:window-width="640"
     inkscape:window-height="480"
     id="namedview11"
     showgrid="false"
     inkscape:zoom="7.375"
     inkscape:cx="16"
     inkscape:cy="16"
     inkscape:window-x="53"
     inkscape:window-y="24"
     inkscape:window-maximized="0"
     inkscape:current-layer="svg2" /><metadata
     id="metadata3"><rdf:RDF><cc:Work
         rdf:about=""><dc:format>image/svg+xml</dc:format><dc:type
           rdf:resource="http://purl.org/dc/dcmitype/StillImage" /><dc:title>PICOL Icon</dc:title><dc:date>2009-03-15</dc:date><dc:creator><cc:Agent><dc:title>Melih Bilgil</dc:title></cc:Agent></dc:creator><dc:rights><cc:Agent><dc:title>Creative Commons BY-SA</dc:title></cc:Agent></dc:rights><dc:publisher><cc:Agent><dc:title>PICOL - Pictorial Communication Language</dc:title></cc:Agent></dc:publisher><dc:identifier>http://blog.picol.org</dc:identifier><dc:source>http://blog.picol.org</dc:source><dc:language>en</dc:language><dc:subject><rdf:Bag><rdf:li>PICOL</rdf:li><rdf:li>icon</rdf:li><rdf:li>icons</rdf:li><rdf:li>sign</rdf:li><rdf:li>GUI</rdf:li><rdf:li>vector</rdf:li><rdf:li>interface</rdf:li></rdf:Bag></dc:subject><dc:description>This is one icon out of all PICOL icons</dc:description><dc:contributor><cc:Agent><dc:title>Melih Bilgil (www.lonja.de), Christopher Adjei (www.boffer.net)</dc:title></cc:Agent></dc:contributor><cc:license
           rdf:resource="http://creativecommons.org/licenses/by-sa/3.0/" /></cc:Work><cc:License
         rdf:about="http://creativecommons.org/licenses/by-sa/3.0/"><cc:permits
           rdf:resource="http://creativecommons.org/ns#Reproduction" /><cc:permits
           rdf:resource="http://creativecommons.org/ns#Distribution" /><cc:requires
           rdf:resource="http://creativecommons.org/ns#Notice" /><cc:requires
           rdf:resource="http://creativecommons.org/ns#Attribution" /><cc:permits
           rdf:resource="http://creativecommons.org/ns#DerivativeWorks" /><cc:requires
           rdf:resource="http://creativecommons.org/ns#ShareAlike" /></cc:License></rdf:RDF></metadata><g
     id="background"><rect
       x="0.001"
       y="0.001"
       fill="none"
       width="32"
       height="32"
       id="rect6" /></g><path
     id="path9"
     d="M 16,0 C 7.164,0.002 0.002,7.164 0,16 0.002,24.838 7.164,32 16,32.001 24.838,31.999 32,24.838 32.001,16 31.999,7.164 24.838,0.002 16,0 z m 0,29.999 C 8.268,29.986 2.015,23.733 2,16 2.015,8.268 8.268,2.015 16,2 23.734,2.015 29.987,8.268 30,16 29.986,23.733 23.733,29.986 16,29.999 z m 0,-19.998 c -3.314,0 -5.999,2.685 -5.999,5.999 0,3.313 2.685,6 5.999,6 3.313,0 6,-2.687 6,-6 0,-3.314 -2.687,-5.999 -6,-5.999 z m 0,10 C 13.791,19.995 12.005,18.209 12.001,16 c 0.004,-2.209 1.79,-3.995 3.999,-3.999 2.209,0.004 3.995,1.79 4.001,3.999 -0.006,2.209 -1.792,3.995 -4.001,4.001 z m 0.001,-6 c -1.104,0 -2,0.896 -2,2 0,1.104 0.896,2 2,2 1.104,0 2,-0.896 2,-2 0,-1.105 -0.897,-2 -2,-2 z" /></svg>

<?xml version="1.0" encoding="UTF-8" standalone="no"?>
<svg
   xmlns:dc="http://purl.org/dc/elements/1.1/"
   xmlns:cc="http://creativecommons.org/ns#"
   xmlns:rdf="http://www.w3.org/1999/02/22-rdf-syntax-ns#"
   xmlns:svg="http://www.w3.org/2000/svg"
   xmlns="http://www.w3.org/2000/svg"
   xmlns:sodipodi="http://sodipodi.sourceforge.net/DTD/sodipodi-0.dtd"
   xmlns:inkscape="http://www.inkscape.org/namespaces/inkscape"
   version="1.1"
   x="0px"
   y="0px"
   width="32px"
   height="32px"
   viewBox="0 0 32 32"
   enable-background="new 0 0 32 32"
   xml:space="preserve"
   id="svg2"
   >

<metadata><rdf:RDF>

   <cc:Work rdf:about="">
   <dc:format>image/svg+xml</dc:format>
   <dc:type rdf:resource="http://purl.org/dc/dcmitype/StillImage" />
   <dc:title>PICOL Icon</dc:title>
   <dc:date>2009-03-15</dc:date>
   <dc:creator><cc:Agent><dc:title>Melih Bilgil</dc:title></cc:Agent></dc:creator>
   <dc:rights><cc:Agent><dc:title>Creative Commons BY-SA</dc:title></cc:Agent></dc:rights>
   <dc:publisher><cc:Agent><dc:title>PICOL - Pictorial Communication Language</dc:title></cc:Agent></dc:publisher>
   <dc:identifier>http://blog.picol.org</dc:identifier>
   <dc:source>http://blog.picol.org</dc:source>
   <dc:language>en</dc:language>
   <dc:subject>
     <rdf:Bag>
       <rdf:li>PICOL</rdf:li>
       <rdf:li>icon</rdf:li>
       <rdf:li>icons</rdf:li>
       <rdf:li>sign</rdf:li>
       <rdf:li>GUI</rdf:li>
       <rdf:li>vector</rdf:li>
       <rdf:li>interface</rdf:li>
     </rdf:Bag>
   </dc:subject>
   <dc:description>This is one icon out of all PICOL icons</dc:description>
   <dc:contributor>
       <cc:Agent><dc:title>Melih Bilgil (www.lonja.de), Christopher Adjei (www.boffer.net)</dc:title></cc:Agent></dc:contributor>
   <cc:license rdf:resource="http://creativecommons.org/licenses/by-sa/3.0/" /></cc:Work>
   <cc:License rdf:about="http://creativecommons.org/licenses/by-sa/3.0/">
       <cc:permits rdf:resource="http://creativecommons.org/ns#Reproduction" />
       <cc:permits rdf:resource="http://creativecommons.org/ns#Distribution" />
       <cc:requires rdf:resource="http://creativecommons.org/ns#Notice" />
       <cc:requires rdf:resource="http://creativecommons.org/ns#Attribution" />
       <cc:permits rdf:resource="http://creativecommons.org/ns#DerivativeWorks" />
       <cc:requires rdf:resource="http://creativecommons.org/ns#ShareAlike" /></cc:License>

   </rdf:RDF>
</metadata>

<g id="background">
	<rect x="0.001" y="0.001" fill="none" width="32" height="32"/>
</g>
<g id="cd">
	<path d="M16,0C7.164,0.002,0.002,7.164,0,16c0.002,8.838,7.164,16,16,16.001c8.838-0.002,16-7.163,16.001-16.001
		C31.999,7.164,24.838,0.002,16,0z M16,29.999C8.268,29.986,2.015,23.733,2,16C2.015,8.268,8.268,2.015,16,2
		c7.734,0.015,13.987,6.268,14,14C29.986,23.733,23.733,29.986,16,29.999z M16,10.001c-3.314,0-5.999,2.685-5.999,5.999
		c0,3.313,2.685,6,5.999,6c3.313,0,6-2.687,6-6C22,12.686,19.313,10.001,16,10.001z M16,20.001
		c-2.209-0.006-3.995-1.792-3.999-4.001c0.004-2.209,1.79-3.995,3.999-3.999c2.209,0.004,3.995,1.79,4.001,3.999
		C19.995,18.209,18.209,19.995,16,20.001z M16.001,14.001c-1.104,0-2,0.896-2,2c0,1.104,0.896,2,2,2c1.104,0,2-0.896,2-2
		C18.001,14.896,17.104,14.001,16.001,14.001z"/>
</g>
</svg>
